;Generated by Cura LulzBot Edition GCodeWriter Version: 3.6.37
;FLAVOR:Marlin
;TIME:10864
;Filament used: 4.21011m
;Layer height: 0.25
;Generated with Cura_SteamEngine 3.6.37-win10
M82 ;absolute extrusion mode
;This G-Code has been generated specifically for the LulzBot TAZ 5 with standard extruder
M75			 ; start GLCD timer
M140 S60.0    ; start bed heating up
G90                      ; absolute positioning
M107                     ; disable fans
M82                      ; set extruder to absolute mode
G28 X0 Y0                ; home X and Y
G28 Z0                   ; home Z
G1 Z15.0 F175 ; move extruder up
M117 Heating...                     ; progress indicator message on LCD
M109 S210  ; wait for extruder to reach printing temp
M190 S60.0    ; wait for bed to reach printing temp
G92 E0                   ; set extruder position to 0
G1 F200 E0               ; prime the nozzle with filament
G92 E0                   ; re-set extruder position to 0
G1 F175       ; set travel speed
M203 X192 Y208 Z3        ; set limits on travel speed
M117 TAZ 5 Printing...   ; progress indicator message on LCD
M221 S100 T0
G92 E0
G1 F600 E-1.75
;LAYER_COUNT:160
;LAYER:0
M107
G0 F2625 X92.019 Y120.992 Z0.425
;TYPE:SKIRT
G1 F600 E0
G1 F900 X96.369 Y118.036 E0.17519
G1 X100.723 Y114.715 E0.3576
G1 X104.867 Y111.169 E0.53927
G1 X108.827 Y107.37 E0.72207
G1 X112.58 Y103.34 E0.90551
G1 X114.325 Y101.298 E0.99498
G1 X117.727 Y96.957 E1.17869
G1 X120.443 Y93.238 E1.33209
G1 X120.775 Y92.852 E1.34905
G1 X121.163 Y92.522 E1.36602
G1 X121.598 Y92.256 E1.383
G1 X122.069 Y92.062 E1.39997
G1 X122.565 Y91.944 E1.41695
G1 X123.068 Y91.905 E1.43376
G1 X131.556 Y91.905 E1.7165
G1 X131.655 Y91.907 E1.7198
G1 X137.809 Y92.095 E1.92488
G1 X161.884 Y92.105 E2.72683
G1 X162.392 Y92.145 E2.74381
G1 X162.888 Y92.264 E2.7608
G1 X163.358 Y92.459 E2.77775
G1 X163.793 Y92.725 E2.79473
G1 X164.18 Y93.056 E2.81169
G1 X164.511 Y93.443 E2.82866
G1 X164.778 Y93.878 E2.84566
G1 X165.019 Y94.502 E2.86794
G1 X166.022 Y98.186 E2.99512
G1 X167.709 Y103.417 E3.17821
G1 X169.681 Y108.517 E3.36035
G1 X171.932 Y113.486 E3.54206
G1 X174.484 Y118.365 E3.72547
G1 X176.632 Y122.033 E3.86706
G1 X176.854 Y122.491 E3.88401
G1 X177.009 Y123.013 E3.90215
G1 X177.944 Y127.512 E4.05522
G1 X178.586 Y130.119 E4.14465
G1 X180.135 Y135.427 E4.32884
G1 X181.066 Y138.172 E4.42539
G1 X181.191 Y138.666 E4.44236
G1 X181.238 Y139.215 E4.46072
G1 X181.241 Y154.21 E4.96021
G1 X181.201 Y154.718 E4.97718
G1 X181.082 Y155.214 E4.99417
G1 X180.888 Y155.685 E5.01114
G1 X180.622 Y156.119 E5.0281
G1 X180.291 Y156.507 E5.04508
G1 X179.904 Y156.838 E5.06205
G1 X179.47 Y157.105 E5.07902
G1 X179 Y157.301 E5.09598
G1 X178.504 Y157.42 E5.11297
G1 X177.991 Y157.461 E5.13012
G1 X98.009 Y157.46 E7.79435
G1 X97.501 Y157.42 E7.81132
G1 X97.006 Y157.301 E7.82828
G1 X96.535 Y157.106 E7.84526
G1 X96.1 Y156.84 E7.86224
G1 X95.713 Y156.51 E7.87919
G1 X95.381 Y156.123 E7.89617
G1 X95.115 Y155.688 E7.91316
G1 X94.919 Y155.218 E7.93012
G1 X94.837 Y154.916 E7.94054
G1 X93.24 Y147.737 E8.18552
G1 X92.511 Y145.1 E8.27666
G1 X90.753 Y139.665 E8.46693
G1 X90.634 Y139.17 E8.48389
G1 X90.595 Y138.665 E8.50076
G1 X90.596 Y123.68 E8.99992
G1 X90.636 Y123.172 E9.01689
G1 X90.755 Y122.676 E9.03388
G1 X90.95 Y122.206 E9.05083
G1 X91.216 Y121.771 E9.06782
G1 X91.546 Y121.383 E9.08479
G1 X92.019 Y120.992 E9.10523
G0 F2625 X127.941 Y119.67
;TYPE:SUPPORT
G1 F900 X127.941 Y114.337 E9.28287
G1 X131.138 Y114.338 E9.38936
G1 X131.138 Y119.667 E9.56688
G1 X130.588 Y119.72 E9.58528
G1 X128.481 Y119.719 E9.65547
G1 X127.941 Y119.67 E9.67353
G0 F2625 X128.359 Y119.507
G1 F900 X128.359 Y114.538 E9.83905
G0 F2625 X128.141 Y115.023
G1 F900 X130.938 Y115.023 E9.93222
G0 F2625 X130.026 Y114.538
G1 F900 X130.026 Y119.519 E10.09813
G0 F2625 X130.938 Y118.357
G1 F900 X128.141 Y118.357 E10.1913
G0 F2625 X128.141 Y116.69
G1 F900 X130.938 Y116.69 E10.28447
G1 F600 E8.53447
G0 F2625 X124.207 Y113.041
G0 X123.848 Y112.753
G0 X123.621 Y112.417
G0 X123.486 Y112.061
G0 X123.442 Y111.728
G0 X123.449 Y100.165
G0 X123.982 Y99.632
G0 X131.307 Y98.543
G1 F600 E10.28447
G1 F900 X123.532 Y98.543 E10.54346
G1 X123.05 Y99.024 E10.56614
G1 X123.05 Y95.512 E10.68313
G1 X123.167 Y95.395 E10.68864
G1 X131.307 Y95.395 E10.95979
G1 X131.307 Y98.543 E11.06465
G0 F2625 X130.026 Y98.343
G1 F900 X130.026 Y95.595 E11.15619
G0 F2625 X131.107 Y96.686
G1 F900 X123.25 Y96.686 E11.4179
G0 F2625 X123.358 Y95.595
G1 F900 X123.358 Y98.435 E11.51251
G0 F2625 X123.438 Y98.353
G1 F900 X123.25 Y98.353 E11.51877
G0 F2625 X125.025 Y98.343
G1 F900 X125.025 Y95.595 E11.61031
G0 F2625 X126.692 Y95.595
G1 F900 X126.692 Y98.343 E11.70184
G0 F2625 X128.359 Y98.343
G1 F900 X128.359 Y95.595 E11.79338
G1 F600 E10.04338
G0 F2625 X123.449 Y100.165
G0 X123.442 Y111.728
G0 X123.486 Y112.061
G0 X123.621 Y112.417
G0 X123.848 Y112.753
G0 X124.207 Y113.041
G0 X124.584 Y113.202
G0 X155.133 Y114.339
G1 F600 E11.79338
G1 F900 X157.891 Y114.34 E11.88525
G1 X157.891 Y116.191 E11.94691
G1 X158.001 Y116.624 E11.96179
G1 X157.891 Y116.895 E11.97153
G1 X157.891 Y119.113 E12.04541
G1 X158.052 Y119.532 E12.06037
G1 X158.007 Y119.642 E12.06432
G1 X157.718 Y119.674 E12.07401
G1 X155.357 Y119.674 E12.15266
G1 X155.077 Y119.643 E12.16204
G1 X155.03 Y119.529 E12.16615
G1 X155.19 Y119.111 E12.18106
G1 X155.19 Y117.143 E12.24661
G1 X154.973 Y116.614 E12.26566
G1 X155.133 Y116.195 E12.2806
G1 X155.133 Y114.339 E12.34242
G0 F2625 X155.333 Y115.023
G1 F900 X157.691 Y115.023 E12.42097
G0 F2625 X156.698 Y114.54
G1 F900 X156.698 Y119.471 E12.58522
G0 F2625 X157.691 Y118.357
G1 F900 X155.39 Y118.357 E12.66187
G0 F2625 X155.22 Y116.69
G1 F900 X157.757 Y116.69 E12.74638
G1 F600 E10.99638
;MESH:
G0 F2625 X157.758 Y113.255
G0 X157.758 Y111.82
G0 X134.703 Y108.123
G0 X133.877 Y101.113
G0 X133.807 Y101.043
;TYPE:WALL-INNER
G1 F600 E12.74638
G1 F900 X133.807 Y96.095 E12.91119
G1 X161.14 Y96.095 E13.82167
G1 X161.141 Y111.534 E14.33595
G1 X161.141 Y111.649 E14.33978
G1 X161.13 Y111.736 E14.3427
G1 X161.119 Y111.763 E14.34367
G1 X161.077 Y111.809 E14.34574
G1 X161.02 Y111.83 E14.34777
G1 X160.95 Y111.84 E14.35012
G1 X160.835 Y111.84 E14.35395
G1 X125.159 Y111.838 E15.54233
G1 X125.044 Y111.838 E15.54616
G1 X124.963 Y111.829 E15.54888
G1 X124.901 Y111.789 E15.55134
G1 X124.866 Y111.717 E15.554
G1 X124.856 Y111.643 E15.55649
G1 X124.856 Y111.528 E15.56032
G1 X124.86 Y101.043 E15.90958
G1 X133.807 Y101.043 E16.20761
G0 F2625 X133.877 Y101.113
G0 X134.661 Y99.525
G0 X134.731 Y99.595
G1 F900 X134.731 Y108.095 E16.49075
G1 X151.267 Y108.095 E17.04157
G1 X151.267 Y99.595 E17.3247
G1 X134.731 Y99.595 E17.87552
G0 F2625 X135.231 Y100.095
;TYPE:WALL-OUTER
G1 F900 X135.231 Y107.595 E18.12535
G1 X150.767 Y107.595 E18.64286
G1 X150.767 Y100.095 E18.89269
G1 X135.231 Y100.095 E19.4102
G0 F2625 X135.231 Y100.345
G0 X134.631 Y100.345
G0 X133.907 Y100.543
G0 X133.307 Y100.543
G1 F900 X133.307 Y95.595 E19.57502
G1 X161.64 Y95.595 E20.5188
G1 X161.641 Y111.681 E21.05463
G1 X161.618 Y111.862 E21.06071
G1 X161.554 Y112.02 E21.06639
G1 X161.442 Y112.158 E21.07231
G1 X161.395 Y112.199 E21.07439
G1 X161.3 Y112.26 E21.07815
G1 X161.147 Y112.317 E21.08359
G1 X160.985 Y112.34 E21.08904
G1 X125.012 Y112.338 E22.28731
G1 X124.84 Y112.318 E22.29308
G1 X124.69 Y112.257 E22.29847
G1 X124.536 Y112.139 E22.30493
G1 X124.441 Y112.003 E22.31046
G1 X124.38 Y111.849 E22.31598
G1 X124.356 Y111.676 E22.3218
G1 X124.36 Y100.543 E22.69264
G1 X133.307 Y100.543 E22.99067
G0 F2625 X133.307 Y100.293
G0 X133.907 Y100.293
G0 X134.297 Y99.105
;TYPE:SKIN
G1 F900 X134.297 Y96.585 E23.07461
G1 X160.65 Y96.585 E23.95244
G1 X160.651 Y111.35 E24.44426
G1 X125.346 Y111.348 E25.62029
G1 X125.35 Y101.533 E25.94723
G1 X134.241 Y101.533 E26.24339
G1 X134.241 Y108.585 E26.4783
G1 X151.757 Y108.585 E27.06176
G1 X151.757 Y99.105 E27.37754
G1 X134.297 Y99.105 E27.95914
G0 F2625 X133.835 Y101.071
G0 X125.971 Y111.122
G1 F900 X125.57 Y110.72 E27.97805
G0 F2625 X125.57 Y110.013
G1 F900 X126.678 Y111.122 E28.03027
G0 F2625 X127.385 Y111.122
G1 F900 X125.57 Y109.307 E28.11577
G0 F2625 X125.57 Y108.6
G1 F900 X128.093 Y111.122 E28.2346
G0 F2625 X128.8 Y111.122
G1 F900 X125.571 Y107.893 E28.38672
G0 F2625 X125.571 Y107.186
G1 F900 X129.507 Y111.122 E28.57213
G0 F2625 X130.214 Y111.122
G1 F900 X125.571 Y106.479 E28.79086
G0 F2625 X125.572 Y105.773
G1 F900 X130.921 Y111.122 E29.04284
G0 F2625 X131.628 Y111.122
G1 F900 X125.572 Y105.066 E29.32812
G0 F2625 X125.572 Y104.359
G1 F900 X132.335 Y111.122 E29.64671
G0 F2625 X133.042 Y111.122
G1 F900 X125.572 Y103.652 E29.99861
G0 F2625 X125.573 Y102.946
G1 F900 X133.749 Y111.122 E30.38376
G0 F2625 X134.457 Y111.122
G1 F900 X125.573 Y102.239 E30.80225
G0 F2625 X125.799 Y101.758
G1 F900 X135.164 Y111.122 E31.24339
G0 F2625 X135.871 Y111.122
G1 F900 X126.507 Y101.758 E31.68451
G0 F2625 X127.214 Y101.758
G1 F900 X134.015 Y108.559 E32.00489
G0 F2625 X134.265 Y108.809
G1 F900 X136.578 Y111.122 E32.11385
G0 F2625 X137.286 Y111.123
G1 F900 X134.972 Y108.809 E32.22286
G0 F2625 X135.679 Y108.809
G1 F900 X137.993 Y111.123 E32.33187
G0 F2625 X138.7 Y111.123
G1 F900 X136.386 Y108.809 E32.44087
G0 F2625 X137.093 Y108.809
G1 F900 X139.407 Y111.123 E32.54988
G0 F2625 X140.114 Y111.123
G1 F900 X137.8 Y108.809 E32.65889
G0 F2625 X138.508 Y108.809
G1 F900 X140.821 Y111.123 E32.76787
G0 F2625 X141.528 Y111.123
G1 F900 X139.215 Y108.809 E32.87686
G0 F2625 X139.922 Y108.809
G1 F900 X142.235 Y111.123 E32.98584
G0 F2625 X142.943 Y111.123
G1 F900 X140.629 Y108.809 E33.09485
G0 F2625 X141.336 Y108.809
G1 F900 X143.65 Y111.123 E33.20386
G0 F2625 X144.357 Y111.123
G1 F900 X142.043 Y108.809 E33.31287
G0 F2625 X142.75 Y108.809
G1 F900 X145.064 Y111.123 E33.42187
G0 F2625 X145.771 Y111.123
G1 F900 X143.457 Y108.809 E33.53088
G0 F2625 X144.164 Y108.809
G1 F900 X146.478 Y111.123 E33.63989
G0 F2625 X147.185 Y111.123
G1 F900 X144.872 Y108.809 E33.74887
G0 F2625 X145.579 Y108.809
G1 F900 X147.892 Y111.123 E33.85786
G0 F2625 X148.599 Y111.123
G1 F900 X146.286 Y108.809 E33.96684
G0 F2625 X146.993 Y108.809
G1 F900 X149.307 Y111.123 E34.07585
G0 F2625 X150.014 Y111.123
G1 F900 X147.7 Y108.809 E34.18486
G0 F2625 X148.407 Y108.809
G1 F900 X150.721 Y111.123 E34.29387
G0 F2625 X151.429 Y111.123
G1 F900 X149.114 Y108.809 E34.4029
G0 F2625 X149.821 Y108.809
G1 F900 X152.136 Y111.123 E34.51193
G0 F2625 X152.843 Y111.123
G1 F900 X150.528 Y108.809 E34.62096
G0 F2625 X151.235 Y108.809
G1 F900 X153.55 Y111.123 E34.72999
G0 F2625 X154.257 Y111.123
G1 F900 X151.943 Y108.809 E34.839
G0 F2625 X151.981 Y108.14
G1 F900 X154.964 Y111.123 E34.97952
G0 F2625 X155.671 Y111.123
G1 F900 X151.981 Y107.433 E35.15335
G0 F2625 X151.981 Y106.726
G1 F900 X156.378 Y111.123 E35.36049
G0 F2625 X157.085 Y111.123
G1 F900 X151.981 Y106.019 E35.60092
G0 F2625 X151.981 Y105.312
G1 F900 X157.792 Y111.123 E35.87467
G0 F2625 X158.5 Y111.123
G1 F900 X151.981 Y104.605 E36.18174
G0 F2625 X151.981 Y103.898
G1 F900 X159.207 Y111.123 E36.52212
G0 F2625 X159.914 Y111.123
G1 F900 X151.981 Y103.19 E36.89583
G0 F2625 X151.981 Y102.483
G1 F900 X160.425 Y110.928 E37.29363
G0 F2625 X160.425 Y110.22
G1 F900 X151.981 Y101.776 E37.69141
G0 F2625 X151.981 Y101.069
G1 F900 X160.425 Y109.513 E38.08919
G0 F2625 X160.425 Y108.806
G1 F900 X151.981 Y100.362 E38.48697
G0 F2625 X151.981 Y99.655
G1 F900 X160.425 Y108.099 E38.88475
G0 F2625 X160.425 Y107.392
G1 F900 X151.981 Y98.948 E39.28253
G0 F2625 X151.913 Y98.88
G1 F900 X149.842 Y96.809 E39.38009
G0 F2625 X149.135 Y96.809
G1 F900 X151.206 Y98.88 E39.47765
G0 F2625 X150.499 Y98.88
G1 F900 X148.428 Y96.809 E39.57521
G0 F2625 X147.721 Y96.809
G1 F900 X149.792 Y98.88 E39.67277
G0 F2625 X149.084 Y98.88
G1 F900 X147.014 Y96.809 E39.77031
G0 F2625 X146.307 Y96.809
G1 F900 X148.377 Y98.88 E39.86785
G0 F2625 X147.67 Y98.88
G1 F900 X145.6 Y96.809 E39.96538
G0 F2625 X144.893 Y96.809
G1 F900 X146.963 Y98.88 E40.06292
G0 F2625 X146.256 Y98.88
G1 F900 X144.186 Y96.809 E40.16046
G0 F2625 X143.479 Y96.809
G1 F900 X145.549 Y98.88 E40.25799
G0 F2625 X144.842 Y98.88
G1 F900 X142.771 Y96.809 E40.35555
G0 F2625 X142.064 Y96.809
G1 F900 X144.135 Y98.88 E40.45312
G0 F2625 X143.428 Y98.88
G1 F900 X141.357 Y96.809 E40.55068
G0 F2625 X140.65 Y96.809
G1 F900 X142.721 Y98.88 E40.64824
G0 F2625 X142.013 Y98.88
G1 F900 X139.943 Y96.809 E40.74577
G0 F2625 X139.236 Y96.809
G1 F900 X141.306 Y98.88 E40.84331
G0 F2625 X140.599 Y98.88
G1 F900 X138.529 Y96.809 E40.94085
G0 F2625 X137.822 Y96.809
G1 F900 X139.892 Y98.88 E41.03838
G0 F2625 X139.185 Y98.88
G1 F900 X137.115 Y96.809 E41.13592
G0 F2625 X136.407 Y96.809
G1 F900 X138.478 Y98.88 E41.23348
G0 F2625 X137.771 Y98.88
G1 F900 X135.7 Y96.809 E41.33104
G0 F2625 X134.993 Y96.809
G1 F900 X137.064 Y98.88 E41.4286
G0 F2625 X136.357 Y98.88
G1 F900 X134.521 Y97.044 E41.51509
G0 F2625 X134.521 Y97.751
G1 F900 X135.649 Y98.88 E41.56825
G0 F2625 X134.942 Y98.88
G1 F900 X134.521 Y98.458 E41.58811
G0 F2625 X133.966 Y100.573
G0 X133.578 Y101.758
G1 F900 X134.015 Y102.195 E41.6087
G0 F2625 X134.015 Y102.902
G1 F900 X132.871 Y101.758 E41.66259
G0 F2625 X132.163 Y101.758
G1 F900 X134.015 Y103.609 E41.74981
G0 F2625 X134.015 Y104.316
G1 F900 X131.456 Y101.758 E41.87033
G0 F2625 X130.749 Y101.758
G1 F900 X134.015 Y105.023 E42.02417
G0 F2625 X134.015 Y105.73
G1 F900 X130.042 Y101.758 E42.2113
G0 F2625 X129.335 Y101.758
G1 F900 X134.015 Y106.437 E42.43174
G0 F2625 X134.015 Y107.145
G1 F900 X128.628 Y101.758 E42.68551
G0 F2625 X127.921 Y101.758
G1 F900 X134.015 Y107.852 E42.97259
G1 X134.103 Y107.94
G0 F2625 X134.703 Y99.567
G0 X150.55 Y96.809
G1 F900 X160.425 Y106.685 E43.4378
G0 F2625 X160.425 Y105.978
G1 F900 X151.257 Y96.809 E43.86971
G0 F2625 X151.964 Y96.809
G1 F900 X160.425 Y105.271 E44.26832
G0 F2625 X160.425 Y104.564
G1 F900 X152.671 Y96.809 E44.63362
G0 F2625 X153.378 Y96.809
G1 F900 X160.424 Y103.856 E44.96556
G0 F2625 X160.424 Y103.149
G1 F900 X154.085 Y96.809 E45.2642
G0 F2625 X154.792 Y96.809
G1 F900 X160.424 Y102.442 E45.52954
G0 F2625 X160.424 Y101.734
G1 F900 X155.499 Y96.809 E45.76155
G0 F2625 X156.206 Y96.809
G1 F900 X160.424 Y101.027 E45.96025
G0 F2625 X160.424 Y100.32
G1 F900 X156.914 Y96.809 E46.12562
G0 F2625 X157.621 Y96.809
G1 F900 X160.424 Y99.613 E46.25769
G0 F2625 X160.424 Y98.906
G1 F900 X158.328 Y96.809 E46.35645
G0 F2625 X159.035 Y96.809
G1 F900 X160.424 Y98.199 E46.42191
G0 F2625 X160.424 Y97.492
G1 F900 X159.742 Y96.809 E46.45406
G0 F2625 X134.505 Y99.504
;TYPE:SKIN
G1 F900 X134.346 Y99.344 E46.45781
G0 F2625 X134.267 Y99.619
G1 F900 X134.267 Y99.973 E46.47183
G1 X134.267 Y101.033 E46.51381
G1 X134.101 Y101.221 E46.52374
G0 F2625 X134.16 Y101.396
G1 F600 E44.77374
G0 F2625 X132.782 Y111.819
G0 X132.782 Y113.253
G0 X132.782 Y123.006
G0 X132.782 Y124.441
G0 X132.781 Y128.523
G0 X132.817 Y128.615
;TYPE:WALL-INNER
G1 F600 E46.52374
G1 F900 X132.547 Y128.741 E46.53367
G1 X132.291 Y128.894 E46.5436
G1 X132.054 Y129.075 E46.55353
G1 X131.838 Y129.28 E46.56345
G1 X131.646 Y129.506 E46.57333
G1 X131.479 Y129.753 E46.58326
G1 X131.34 Y130.015 E46.59314
G1 X131.229 Y130.291 E46.60305
G1 X131.148 Y130.579 E46.61302
G1 X131.1 Y130.876 E46.62304
G1 X131.085 Y131.171 E46.63288
G1 X131.1 Y131.466 E46.64272
G1 X131.148 Y131.763 E46.65274
G1 X131.229 Y132.051 E46.66271
G1 X131.34 Y132.327 E46.67261
G1 X131.479 Y132.589 E46.68249
G1 X131.646 Y132.836 E46.69243
G1 X131.838 Y133.062 E46.7023
G1 X132.054 Y133.267 E46.71222
G1 X132.291 Y133.448 E46.72216
G1 X132.547 Y133.601 E46.73209
G1 X132.817 Y133.727 E46.74202
G1 X133.1 Y133.821 E46.75195
G1 X133.39 Y133.886 E46.76185
